X: 1
T: The Hate Of Lice
R: polka
M: 2/4
L: 1/8
K: Gmaj
dB eB|d2 dB/c/|dB gB|BA A2|
dB eB|d2 dB/c/|d>e dB|AG G2:|
B/c/B/A/ BA|GE DG/A/|B>A Bd|BA A2|
B/c/B/A/ BA|GE DB/c/|d>e dB|AGG2:|

